X:2
T:Highland Cathedral
C:Harpnotes by Bernhard Weichel
R:strathspey
M:4/2
L:1/4
%Q:1/4=120
K:Gmaj
%%%%hnc {"jumplines": ["T1", "B1"]}
%%%%hnc {"flowlines": ["T1", "B1"]}
%%%%hnc {"synchlines": [["T1", "T2"], ["B1", "B2"]]}
%%%%hnc {"print": { ["T1", "T2"], ["B1", "B2"]}}
%%%%hnc {"legendpos": [10,10]}
%%%%hna {"das ist ein titel", [30,30]}
%%%%hna {"das ist ein titel", [270,30]}
%%score (T1 T2)  (B1 B2)
V:T1 clef=treble-8 octave=-1 name="v1" " " snm="v1" 
V:T2 clef=treble-8 octave=-1 name="v2" " " snm="v2" 
V:B1 clef=bass transpose=-24 name="Basso I" middle=D, " " snm="B.I" 
V:B2 clef=bass transpose=-24 name="Basso II" middle=D, " " snm="B.II" 
P:Teil 1
[V:T1] |: "^:Teil 1"G3 A/2B/2 AG DG | A3 B B4 | B3 c/2d/2 cB AG | A3 B D4 |
E3 F/2G/2 GD FG | d3 c B4 | A3 B/2c/2 BG DG | A3 G G4 !fine!:|
P:Teil 2
|: F3 D A3 F/2A/2 | B3 F F3 E | D3 E/2F/2 E4 | F3 G/2 A/2 E4 :|
F3 D A3 F/2A/2 | B3 F F3E | D2 D/2E/2F E3D | D4 "^@Teil 1"D4 |]
%
[V:T2] |: "^:Teil 1"D2 D2 D4 | F2 F2 G4 | G4 G4 | A4 A4 |
G4 G4 | A2 A2 G4 | A4 G4 | F4 D4 :|
|: D4 E4 | D4 D4 | B,4 A2A2 | A4 A2 A2 :|
P:Teil 2
D4 E4 | D4 D4 | B,4 A4 | [Ad]2 [Ad]2 [Ad]2 "^@Teil 1"[Ad]2 |]
[V:B1] |: D2 D2 D4 | D2 D2 D4 | E4 G4 | E4 F4 |
E4 D4 | F4 E4 | E4 D4 | D4 D4 :|
z D/2F/2 A2 z ^C/2E/2 A2 | z B,/2D/2 F2 z D/2F/2 F2 | G2 G2 E2 E2 | D2 D2 E2 E2 :|
z D/2F/2 A2 z ^C/2E/2 A2 | z B,/2D/2 F2 z D/2F/2 F2 | G2 G2 E2 E2 | F2 F2 F2 F2 |]
%
%
[V:B2] |: G,,4 G,,4 | D,4 G,2 G, F, | E,4 D,4 | A,,2 ^C,2 D,4 |
C,4 B,,4 | D,3 ^D, E,3 =D, | C,4 G,4 | D,4 G,4 :|
|: D,4 A,,4 | B,,4 A,4 | G,4 A,4 | D,4 A,4 :|
D,4 A,,4 | B,,4 A,4 | G,4 A,4 | D,4 A,4 |]



